X:1
T:Dreher
R:dreher
F:http://simonwascher.info
Z:abc transcription Simon Wascher
M:2/4
L:1/8
K:G
DG |\
B2 B2 | Bc/B/ AG | d2 d2 | de/d/ cB |
c2 c2 | cd/c/ BA | B2 B2 | B2 DG |
B2 B2 | Bc/B/ AG | d2 d2 | de/d/ cB |
c2 c2 | cd/c/ BA | Bd cA | B2 :|
|: D2 |\
c2 Ac | B2 GB | AD FA | GB d2 |
c2 Ac | B2 GB | AD FA | G2 :|
|: d2 |\
B2 d2 | BB ed | d2 c2 | A2 c2 |
A2 c2 | AA dc | B2 :|
W:aus Simon Waschers TradArchiv

